X:540
T:Off to Donnybrook Jig
M:6/8
L:1/8
Z:abc by Bruce Osborne - bosborne@kos.net
K:G
D|DGG BGG|AGG GBd|efg dBG|AGA BGE|!
DGG BGG|AGG GBd|efg dBG|AGA G2:|!
|:f|gfg efg|edB def|gfg eag|fdd d2 f|!
gfg efg|edB def|gfe dBA|BGG G2:|!
